Sources/FrostedUI/Resources/Icons.xcassets/mailOut16.imageset/mail-out-16.svg

<svg width="16" height="16" viewBox="0 0 16 16" fill="none" xmlns="http://www.w3.org/2000/svg" data-fui-icon="true">
  <path
    d="M12.3896 1.5C13.8311 1.5 15 2.66889 15 4.11035V6.25C15 6.66421 14.6642 7 14.25 7C13.8358 7 13.5 6.66421 13.5 6.25V5.9082L9.39746 8.6709C8.83668 9.0484 8.17601 9.25 7.5 9.25C6.82399 9.25 6.16332 9.0484 5.60254 8.6709L1.5 5.9082V10.8896C1.5 11.5027 1.99732 12 2.61035 12H10.5C10.9142 12 11.25 12.3358 11.25 12.75C11.25 13.1642 10.9142 13.5 10.5 13.5H2.61035C1.16889 13.5 0 12.3311 0 10.8896V4.11035C0 2.66889 1.16889 1.5 2.61035 1.5H12.3896ZM12.4551 7.61035C12.7395 7.30921 13.2135 7.29567 13.5146 7.58008L15.7646 9.70508C15.7672 9.70745 15.769 9.71049 15.7715 9.71289C15.7784 9.71964 15.7853 9.72639 15.792 9.7334C15.8184 9.76106 15.8426 9.7903 15.8643 9.82129C15.8704 9.83003 15.8751 9.83962 15.8809 9.84863C15.9012 9.88047 15.9203 9.91285 15.9355 9.94727C15.9395 9.95622 15.9427 9.96548 15.9463 9.97461C15.9808 10.0615 16 10.1545 16 10.25C16 10.3451 15.9806 10.4378 15.9463 10.5244C15.9434 10.5318 15.9416 10.5396 15.9385 10.5469C15.9228 10.5832 15.9022 10.6169 15.8809 10.6504C15.8753 10.6592 15.8702 10.6682 15.8643 10.6768C15.8425 10.708 15.8186 10.7377 15.792 10.7656C15.7853 10.7726 15.7784 10.7794 15.7715 10.7861C15.7689 10.7887 15.7673 10.7924 15.7646 10.7949L13.5146 12.9199C13.2135 13.2043 12.7395 13.1908 12.4551 12.8896C12.1707 12.5885 12.1842 12.1145 12.4854 11.8301L13.3643 11H10C9.58579 11 9.25 10.6642 9.25 10.25C9.25 9.83579 9.58579 9.5 10 9.5H13.3643L12.4854 8.66992C12.1842 8.38551 12.1707 7.91149 12.4551 7.61035ZM2.61035 3C2.00057 3 1.50525 3.49204 1.5 4.10059L6.44043 7.42676C6.7536 7.63749 7.12253 7.75 7.5 7.75C7.87747 7.75 8.2464 7.63749 8.55957 7.42676L13.499 4.10059C13.4938 3.49205 12.9994 3 12.3896 3H2.61035Z"
    fill="currentColor"
  />
</svg>

<svg xmlns="http://www.w3.org/2000/svg" width="16" height="16" fill="none" data-fui-icon="true" viewBox="0 0 16 16"><path fill="currentColor" d="M12.39 1.5A2.61 2.61 0 0 1 15 4.11v2.14a.75.75 0 0 1-1.5 0v-.342L9.397 8.671a3.4 3.4 0 0 1-3.794 0L1.5 5.908v4.982c0 .613.497 1.11 1.11 1.11h7.89a.75.75 0 0 1 0 1.5H2.61A2.61 2.61 0 0 1 0 10.89V4.11A2.61 2.61 0 0 1 2.61 1.5zm.065 6.11a.75.75 0 0 1 1.06-.03l2.25 2.125.006.008a1 1 0 0 1 .093.108l.017.028q.031.047.054.098l.011.028a.75.75 0 0 1 0 .55q-.003.011-.008.022a1 1 0 0 1-.057.103q-.008.014-.017.027a1 1 0 0 1-.093.11l-.006.008-2.25 2.125a.75.75 0 1 1-1.03-1.09l.88-.83H10a.75.75 0 0 1 0-1.5h3.364l-.879-.83a.75.75 0 0 1-.03-1.06M2.61 3A1.11 1.11 0 0 0 1.5 4.1l4.94 3.327a1.9 1.9 0 0 0 2.12 0L13.499 4.1A1.11 1.11 0 0 0 12.389 3z"/></svg>
